X:002
T:Atlantic Roar (h)
B:NFID.083b
002atl_r
S:JD
L:1/8
M:C
R:hornpipe
Q:280
K:G
(3DEF|G2GF G2Gf|gefd e^cAG|F2FE F2D2|G2GF GDB,D|
G2GF G2Gf|gefd e^cAG|F2FE F2DF|AB (3AGF GA:|
Bc|de (3d^ce d2B=c|(3def ga bgdc|de (3d^ce d2=cB|A2D2A2 FA|
de (3d^ce d2B=c|(3def ga bgdc|(3BdB GB (3AcA FA|G6:|

%%%

